X:1
T:From Night Till Morn (Spin Cycle)
M:4/4
L:1/8
N:https://www.facebook.com/clarence.wright3/videos/575703319130734/
K:G
|:B2 B2 B2 G2|AG AB G2 AB|cB AG GA Bc|d2 ed B2 A2|
B2 B2 B2 G2|AG AB G2 AB|cB AG GA Bc|[1 A3 G G2 dc |2[ A3 G G2 D2 :|
|:GA Bc d2 d2|d2 e2 d4|e2 d2 g2 B2|d2 ed B2 A2|
B2 B2 B2 G2|AG AB G2 AB|cB AG GA Bc|d2 ed B2 A2|
B2 B2 B2 G2|AG AB G2 AB|cB AG GA Bc|A3 G G2||


